Numix/24/actions/go-jump.svg

<?xml version="1.0" encoding="UTF-8" standalone="no"?>
<svg
   xmlns:dc="http://purl.org/dc/elements/1.1/"
   xmlns:cc="http://creativecommons.org/ns#"
   xmlns:rdf="http://www.w3.org/1999/02/22-rdf-syntax-ns#"
   xmlns:svg="http://www.w3.org/2000/svg"
   xmlns="http://www.w3.org/2000/svg"
   xmlns:sodipodi="http://sodipodi.sourceforge.net/DTD/sodipodi-0.dtd"
   xmlns:inkscape="http://www.inkscape.org/namespaces/inkscape"
   width="24"
   height="24"
   viewBox="0 0 24 24"
   id="svg2"
   version="1.1"
   inkscape:version="0.91 r13725"
   sodipodi:docname="go-jump.svg">
  <metadata
     id="metadata18">
    <rdf:RDF>
      <cc:Work
         rdf:about="">
        <dc:format>image/svg+xml</dc:format>
        <dc:type
           rdf:resource="http://purl.org/dc/dcmitype/StillImage" />
      </cc:Work>
    </rdf:RDF>
  </metadata>
  <defs
     id="defs16" />
  <sodipodi:namedview
     pagecolor="#ffffff"
     bordercolor="#666666"
     borderopacity="1"
     objecttolerance="10"
     gridtolerance="10"
     guidetolerance="10"
     inkscape:pageopacity="0"
     inkscape:pageshadow="2"
     inkscape:window-width="1366"
     inkscape:window-height="704"
     id="namedview14"
     showgrid="true"
     inkscape:zoom="29.279561"
     inkscape:cx="11.702274"
     inkscape:cy="14.732281"
     inkscape:window-x="0"
     inkscape:window-y="27"
     inkscape:window-maximized="1"
     inkscape:current-layer="svg2">
    <inkscape:grid
       type="xygrid"
       id="grid4149" />
  </sodipodi:namedview>
  <g
     transform="matrix(0 -1 1 0 1 23)"
     id="g4">
    <path
       style="fill:#268bd2;fill-rule:evenodd"
       d="M 4.0136719,6 C 2.7549048,7.6726007 2,9.745886 2,12 2,17.522017 6.4779827,22 12,22 17.522017,22 22,17.522017 22,12 22,9.745886 21.245095,7.6726007 19.986328,6 16,5 8,5 4.0136719,6 Z"
       transform="matrix(0,1,-1,0,23,-1)"
       id="path6"
       inkscape:connector-curvature="0"
       sodipodi:nodetypes="cssscc" />
  </g>
  <g
     style="fill:#fff"
     transform="matrix(0 -1 1 0 1 23)"
     id="g8">
    <path
       style="fill-rule:evenodd;fill-opacity:1;fill:#eaf4fb"
       d="M 12 2 C 8.9673291 2 6 3 4 6 L 11.003906 6 L 11.003906 14.3125 L 8.9726562 12.34375 C 8.6425927 12.01068 8.1294904 11.912604 7.6914062 12.09375 C 7.2533217 12.274895 6.9889043 12.691698 7.0039062 13.15625 C 7.0128962 13.44842 7.1346153 13.735903 7.3476562 13.9375 L 11.191406 17.65625 C 11.407448 17.869534 11.697846 18 12.003906 18 C 12.309964 18 12.600365 17.869534 12.816406 17.65625 L 16.660156 13.9375 C 17.110243 13.499245 17.110243 12.782007 16.660156 12.34375 C 16.210069 11.905494 15.485244 11.905494 15.035156 12.34375 L 13.003906 14.3125 L 13.003906 6 L 20 6 C 18 3 15.039773 2 12 2 z "
       transform="matrix(0,1,-1,0,23,-1)"
       id="path10" />
  </g>
</svg>

<svg xmlns="http://www.w3.org/2000/svg" viewBox="0 0 24 24">
 <g transform="matrix(0 -1 1 0 1 23)">
  <path d="m 4.01 6 c -1.259 1.673 -2.01 3.746 -2.01 6 0 5.522 4.478 10 10 10 5.522 0 10 -4.478 10 -10 0 -2.254 -0.755 -4.327 -2.01 -6 -3.986 -1 -11.986 -1 -15.973 0" transform="matrix(0,1,-1,0,23,-1)" style="fill:#268bd2;fill-rule:evenodd"/>
 </g>
 <g transform="matrix(0 -1 1 0 1 23)" style="fill:#fff">
  <path d="m 12 2 c -3.03 0 -6 1 -8 4 l 7 0 l 0 8.313 l -2.031 -1.969 c -0.33 -0.333 -0.843 -0.431 -1.281 -0.25 c -0.438 0.181 -0.703 0.598 -0.688 1.063 c 0.009 0.292 0.131 0.58 0.344 0.781 l 3.844 3.719 c 0.216 0.213 0.506 0.344 0.813 0.344 c 0.306 0 0.596 -0.13 0.813 -0.344 l 3.844 -3.719 c 0.45 -0.438 0.45 -1.155 0 -1.594 c -0.45 -0.438 -1.175 -0.438 -1.625 0 l -2.031 1.969 l 0 -8.313 l 6.996 0 c -2 -3 -4.96 -4 -8 -4 z" transform="matrix(0,1,-1,0,23,-1)" style="fill:#eaf4fb;fill-opacity:1;fill-rule:evenodd"/>
 </g>
</svg>
